IMB-X-Files/The-Ambassadors-Assets/6615a96c728db776a13e17c3_Badge-EnterprisePartner-Blue 1.svg

<svg fill="none" height="49" viewBox="0 0 215 49" width="215" xmlns="http://www.w3.org/2000/svg" xmlns:xlink="http://www.w3.org/1999/xlink"><clipPath id="a"><rect height="48.0319" rx="9.14894" width="215"/></clipPath><g clip-path="url(#a)" fill="#fff"><path clip-rule="evenodd" d="m40.4565 17-7.1743 14h-6.7249l2.9908-5.8074h-.1383c-2.4549 3.2148-6.1544 5.3234-11.4098 5.8074v-5.721s3.3711-.1901 5.3418-2.2815h-5.3418v-5.9975h5.9988v4.9432h.1383l2.4548-4.9432h4.5466v4.9086h.1383l2.524-4.9086z" fill-rule="evenodd"/><path d="m58.4941 28.5912h7.429v-1.6811h-5.2995v-3.3462h4.0346v-1.6011h-4.0346v-3.1381h5.0273v-1.6811h-7.1568zm9.1899 0h1.9373v-4.9313c0-1.3289.8806-2.0013 1.9693-2.0013 1.1528 0 1.6651.5764 1.6651 1.8412v5.0914h1.9373v-5.2675c0-2.3055-1.1848-3.2822-2.8659-3.2822-1.3769 0-2.3055.6885-2.7058 1.505v-1.3289h-1.9373zm12.5908.1441c.5924 0 1.0087-.0961 1.3129-.2081v-1.5371c-.2722.1121-.5604.1601-.9447.1601-.6084 0-.9606-.3362-.9606-1.0727v-4.4029h1.8412v-1.457h-1.8412v-1.8412h-1.9373v1.8412h-1.1207v1.457h1.1207v4.579c0 1.5851.8646 2.4817 2.5297 2.4817zm6.7426.016c2.1455 0 3.5704-.9606 3.8426-2.7218h-1.8733c-.1441.8165-.7525 1.2808-1.9212 1.2808-1.441 0-2.2415-.8966-2.3056-2.4816h6.1321v-.5604c0-2.994-1.8732-4.2268-3.9546-4.2268-2.3856 0-4.1628 1.7292-4.1628 4.3229v.1281c0 2.6417 1.7772 4.2588 4.2428 4.2588zm-2.2254-5.2195c.1921-1.2968.9766-2.0814 2.1454-2.0814 1.2008 0 1.9373.6405 2.0333 2.0814zm7.8304 5.0594h1.9373v-4.3549c0-1.7772 1.0247-2.3215 2.7218-2.3376v-1.8092c-1.4089.0161-2.1934.6405-2.7218 1.6972v-1.5691h-1.9373zm6.3637 2.8659h1.9369v-4.1788c.449.8166 1.409 1.473 2.738 1.473 2.162 0 3.715-1.6331 3.715-4.3229v-.1281c0-2.7058-1.617-4.2588-3.715-4.2588-1.233 0-2.273.7205-2.738 1.521v-1.3449h-1.9369zm4.1949-4.2428c-1.409 0-2.322-.8806-2.322-2.7539v-.128c0-1.8573.961-2.7699 2.306-2.7699 1.265 0 2.225.9126 2.225 2.7699v.128c0 1.7932-.784 2.7539-2.209 2.7539zm5.937 1.3769h1.937v-4.3549c0-1.7772 1.025-2.3215 2.722-2.3376v-1.8092c-1.409.0161-2.194.6405-2.722 1.6972v-1.5691h-1.937zm6.412 0h1.937v-8.3736h-1.937zm.944-9.7505c.641 0 1.153-.4803 1.153-1.1047 0-.6404-.512-1.1208-1.153-1.1208-.64 0-1.152.4804-1.152 1.1208 0 .6244.512 1.1047 1.152 1.1047zm6.219 9.9106c2.146 0 3.347-.9767 3.347-2.6738 0-1.7772-1.169-2.2575-3.138-2.5617-1.329-.2241-1.73-.4643-1.73-1.0727 0-.5924.497-.9927 1.329-.9927.897 0 1.329.3523 1.489 1.1208h1.793c-.208-1.8893-1.569-2.5297-3.282-2.5297-1.569 0-3.138.8326-3.138 2.5137 0 1.569.817 2.1934 3.026 2.5457 1.233.2081 1.793.4643 1.793 1.1527 0 .7045-.464 1.0728-1.505 1.0728-1.136 0-1.569-.4964-1.665-1.3449h-1.825c.08 1.7771 1.345 2.7698 3.506 2.7698zm8.728 0c2.146 0 3.571-.9606 3.843-2.7218h-1.873c-.144.8165-.753 1.2808-1.922 1.2808-1.44 0-2.241-.8966-2.305-2.4816h6.132v-.5604c0-2.994-1.873-4.2268-3.955-4.2268-2.385 0-4.162 1.7292-4.162 4.3229v.1281c0 2.6417 1.777 4.2588 4.242 4.2588zm-2.225-5.2195c.192-1.2968.977-2.0814 2.145-2.0814 1.201 0 1.938.6405 2.034 2.0814zm11.806 5.0594h2.129v-4.3549h1.601c2.45 0 4.195-1.0727 4.195-3.4903v-.0641c0-2.4016-1.681-3.5383-4.243-3.5383h-3.682zm2.129-5.8919v-3.9066h1.553c1.361 0 2.161.5283 2.161 1.8892v.0641c0 1.2648-.752 1.9533-2.161 1.9533zm9.505 6.052c1.28 0 2.017-.4643 2.561-1.1848v1.0247h1.906v-5.4917c0-2.2895-1.473-3.058-3.347-3.058-1.873 0-3.426.8166-3.586 2.7699h1.873c.096-.8326.593-1.3129 1.601-1.3129 1.137 0 1.521.5604 1.521 1.6811v.4323h-1.04c-2.402 0-4.291.7045-4.291 2.6577 0 1.7452 1.265 2.4817 2.802 2.4817zm.464-1.3929c-.961 0-1.345-.4643-1.345-1.1688 0-1.0247.945-1.3609 2.418-1.3609h.992v.8325c0 1.0728-.88 1.6972-2.065 1.6972zm6.223 1.2328h1.938v-4.3549c0-1.7772 1.024-2.3215 2.722-2.3376v-1.8092c-1.409.0161-2.194.6405-2.722 1.6972v-1.5691h-1.938zm9.291.1441c.593 0 1.009-.0961 1.313-.2081v-1.5371c-.272.1121-.56.1601-.945.1601-.608 0-.96-.3362-.96-1.0727v-4.4029h1.841v-1.457h-1.841v-1.8412h-1.938v1.8412h-1.12v1.457h1.12v4.579c0 1.5851.865 2.4817 2.53 2.4817zm3.06-.1441h1.938v-4.9313c0-1.3289.88-2.0013 1.969-2.0013 1.153 0 1.665.5764 1.665 1.8412v5.0914h1.937v-5.2675c0-2.3055-1.184-3.2822-2.865-3.2822-1.377 0-2.306.6885-2.706 1.505v-1.3289h-1.938zm13.424.1601c2.146 0 3.571-.9606 3.843-2.7218h-1.873c-.145.8165-.753 1.2808-1.922 1.2808-1.441 0-2.241-.8966-2.305-2.4816h6.132v-.5604c0-2.994-1.873-4.2268-3.955-4.2268-2.385 0-4.163 1.7292-4.163 4.3229v.1281c0 2.6417 1.778 4.2588 4.243 4.2588zm-2.225-5.2195c.192-1.2968.976-2.0814 2.145-2.0814 1.201 0 1.937.6405 2.034 2.0814zm7.83 5.0594h1.937v-4.3549c0-1.7772 1.025-2.3215 2.722-2.3376v-1.8092c-1.409.0161-2.193.6405-2.722 1.6972v-1.5691h-1.937z"/></g></svg>

<svg width="215" height="49" viewBox="0 0 215 49" fill="none" xmlns="http://www.w3.org/2000/svg">
<g clip-path="url(#clip0_2446_1549)">
<path fill-rule="evenodd" clip-rule="evenodd" d="M40.4565 17L33.2822 31H26.5573L29.5481 25.1926H29.4098C26.9549 28.4074 23.2554 30.516 18 31V25.279C18 25.279 21.3711 25.0889 23.3418 22.9975H18V17H23.9988V21.9432H24.1371L26.5919 17H31.1385V21.9086H31.2768L33.8008 17H40.4565Z" fill="white"/>
<path d="M58.4941 28.5912H65.9231V26.9101H60.6236V23.5639H64.6582V21.9628H60.6236V18.8247H65.6509V17.1436H58.4941V28.5912ZM67.684 28.5912H69.6213V23.6599C69.6213 22.331 70.5019 21.6586 71.5906 21.6586C72.7434 21.6586 73.2557 22.235 73.2557 23.4998V28.5912H75.193V23.3237C75.193 21.0182 74.0082 20.0415 72.3271 20.0415C70.9502 20.0415 70.0216 20.73 69.6213 21.5465V20.2176H67.684V28.5912ZM80.2748 28.7353C80.8672 28.7353 81.2835 28.6392 81.5877 28.5272V26.9901C81.3155 27.1022 81.0273 27.1502 80.643 27.1502C80.0346 27.1502 79.6824 26.814 79.6824 26.0775V21.6746H81.5236V20.2176H79.6824V18.3764H77.7451V20.2176H76.6244V21.6746H77.7451V26.2536C77.7451 27.8387 78.6097 28.7353 80.2748 28.7353ZM87.0174 28.7513C89.1629 28.7513 90.5878 27.7907 90.86 26.0295H88.9867C88.8426 26.846 88.2342 27.3103 87.0655 27.3103C85.6245 27.3103 84.824 26.4137 84.7599 24.8287H90.892V24.2683C90.892 21.2743 89.0188 20.0415 86.9374 20.0415C84.5518 20.0415 82.7746 21.7707 82.7746 24.3644V24.4925C82.7746 27.1342 84.5518 28.7513 87.0174 28.7513ZM84.792 23.5318C84.9841 22.235 85.7686 21.4504 86.9374 21.4504C88.1382 21.4504 88.8747 22.0909 88.9707 23.5318H84.792ZM92.6224 28.5912H94.5597V24.2363C94.5597 22.4591 95.5844 21.9148 97.2815 21.8987V20.0895C95.8726 20.1056 95.0881 20.73 94.5597 21.7867V20.2176H92.6224V28.5912ZM98.9861 31.4571H100.923V27.2783C101.372 28.0949 102.332 28.7513 103.661 28.7513C105.823 28.7513 107.376 27.1182 107.376 24.4284V24.3003C107.376 21.5945 105.759 20.0415 103.661 20.0415C102.428 20.0415 101.388 20.762 100.923 21.5625V20.2176H98.9861V31.4571ZM103.181 27.2143C101.772 27.2143 100.859 26.3337 100.859 24.4604V24.3324C100.859 22.4751 101.82 21.5625 103.165 21.5625C104.43 21.5625 105.39 22.4751 105.39 24.3324V24.4604C105.39 26.2536 104.606 27.2143 103.181 27.2143ZM109.118 28.5912H111.055V24.2363C111.055 22.4591 112.08 21.9148 113.777 21.8987V20.0895C112.368 20.1056 111.583 20.73 111.055 21.7867V20.2176H109.118V28.5912ZM115.53 28.5912H117.467V20.2176H115.53V28.5912ZM116.474 18.8407C117.115 18.8407 117.627 18.3604 117.627 17.736C117.627 17.0956 117.115 16.6152 116.474 16.6152C115.834 16.6152 115.322 17.0956 115.322 17.736C115.322 18.3604 115.834 18.8407 116.474 18.8407ZM122.693 28.7513C124.839 28.7513 126.04 27.7746 126.04 26.0775C126.04 24.3003 124.871 23.82 122.902 23.5158C121.573 23.2917 121.172 23.0515 121.172 22.4431C121.172 21.8507 121.669 21.4504 122.501 21.4504C123.398 21.4504 123.83 21.8027 123.99 22.5712H125.783C125.575 20.6819 124.214 20.0415 122.501 20.0415C120.932 20.0415 119.363 20.8741 119.363 22.5552C119.363 24.1242 120.18 24.7486 122.389 25.1009C123.622 25.309 124.182 25.5652 124.182 26.2536C124.182 26.9581 123.718 27.3264 122.677 27.3264C121.541 27.3264 121.108 26.83 121.012 25.9815H119.187C119.267 27.7586 120.532 28.7513 122.693 28.7513ZM131.421 28.7513C133.567 28.7513 134.992 27.7907 135.264 26.0295H133.391C133.247 26.846 132.638 27.3103 131.469 27.3103C130.029 27.3103 129.228 26.4137 129.164 24.8287H135.296V24.2683C135.296 21.2743 133.423 20.0415 131.341 20.0415C128.956 20.0415 127.179 21.7707 127.179 24.3644V24.4925C127.179 27.1342 128.956 28.7513 131.421 28.7513ZM129.196 23.5318C129.388 22.235 130.173 21.4504 131.341 21.4504C132.542 21.4504 133.279 22.0909 133.375 23.5318H129.196ZM141.002 28.5912H143.131V24.2363H144.732C147.182 24.2363 148.927 23.1636 148.927 20.746V20.6819C148.927 18.2803 147.246 17.1436 144.684 17.1436H141.002V28.5912ZM143.131 22.6993V18.7927H144.684C146.045 18.7927 146.845 19.321 146.845 20.6819V20.746C146.845 22.0108 146.093 22.6993 144.684 22.6993H143.131ZM152.636 28.7513C153.916 28.7513 154.653 28.287 155.197 27.5665V28.5912H157.103V23.0995C157.103 20.81 155.63 20.0415 153.756 20.0415C151.883 20.0415 150.33 20.8581 150.17 22.8114H152.043C152.139 21.9788 152.636 21.4985 153.644 21.4985C154.781 21.4985 155.165 22.0589 155.165 23.1796V23.6119H154.125C151.723 23.6119 149.834 24.3164 149.834 26.2696C149.834 28.0148 151.099 28.7513 152.636 28.7513ZM153.1 27.3584C152.139 27.3584 151.755 26.8941 151.755 26.1896C151.755 25.1649 152.7 24.8287 154.173 24.8287H155.165V25.6612C155.165 26.734 154.285 27.3584 153.1 27.3584ZM159.323 28.5912H161.261V24.2363C161.261 22.4591 162.285 21.9148 163.983 21.8987V20.0895C162.574 20.1056 161.789 20.73 161.261 21.7867V20.2176H159.323V28.5912ZM168.614 28.7353C169.207 28.7353 169.623 28.6392 169.927 28.5272V26.9901C169.655 27.1022 169.367 27.1502 168.982 27.1502C168.374 27.1502 168.022 26.814 168.022 26.0775V21.6746H169.863V20.2176H168.022V18.3764H166.084V20.2176H164.964V21.6746H166.084V26.2536C166.084 27.8387 166.949 28.7353 168.614 28.7353ZM171.674 28.5912H173.612V23.6599C173.612 22.331 174.492 21.6586 175.581 21.6586C176.734 21.6586 177.246 22.235 177.246 23.4998V28.5912H179.183V23.3237C179.183 21.0182 177.999 20.0415 176.318 20.0415C174.941 20.0415 174.012 20.73 173.612 21.5465V20.2176H171.674V28.5912ZM185.098 28.7513C187.244 28.7513 188.669 27.7907 188.941 26.0295H187.068C186.923 26.846 186.315 27.3103 185.146 27.3103C183.705 27.3103 182.905 26.4137 182.841 24.8287H188.973V24.2683C188.973 21.2743 187.1 20.0415 185.018 20.0415C182.633 20.0415 180.855 21.7707 180.855 24.3644V24.4925C180.855 27.1342 182.633 28.7513 185.098 28.7513ZM182.873 23.5318C183.065 22.235 183.849 21.4504 185.018 21.4504C186.219 21.4504 186.955 22.0909 187.052 23.5318H182.873ZM190.703 28.5912H192.64V24.2363C192.64 22.4591 193.665 21.9148 195.362 21.8987V20.0895C193.953 20.1056 193.169 20.73 192.64 21.7867V20.2176H190.703V28.5912Z" fill="white"/>
</g>
<defs>
<clipPath id="clip0_2446_1549">
<rect width="215" height="48.0319" rx="9.14894" fill="white"/>
</clipPath>
</defs>
</svg>
